!!!OTL: SAG MIR DAS WORT DAS DEREINST MICH HAT BETOERT
!!!ARE: Europa, Mitteleuropa, Deutschland; Ireland
!!!SCT: F0199
!!!YEM: Copyright 1995, estate of Helmut Schaffrath.
**kern
*ICvox
*Ivox
*M4/4
*k[f#]
*G:
=1
{4g
8g
8a
4b
8b
8cc
=2
8dd
8dd
8.ee
16dd
4b
4r}
=3
{4dd
8.cc
16b
4a
4r
=4
4cc
8.b
16a
4g
4r}
=5
{4g
8g
8a
4b
8b
8cc
=6
8dd
8dd
8.ee
16dd
4b
4r}
=7
{4dd
8cc
8b
4a
8b
8a
=8
2.g
4r}
=9
{4dd
8.cc
16b
4a
8d
8d
=10
4cc
8.b
16a
4g
4r}
=11
{4dd
8.cc
16b
4a
8d
8d
=12
4cc
8.b
16a
4g
4r}
=13
{4g
8g
8a
4b
8b
8cc
=14
8dd
8dd
8.ee
16dd
4b
4r}
=15
{4dd
8.cc
16b
4a
8b
8a
=16
2g
2r}
==
!!!AGN: Liebes - Lied, Abschied
!!!ONB: ESAC (Essen Associative Code) Database: FINK
!!!AMT: simple quadruple
!!!AIN: vox
!!!EED: Helmut Schaffrath
!!!EEV: 1.0
*-
